X: 32712
T: Polka Du Pere Pointu
R: polka
M: 2/4
K: Gmajor
Bd Bd|gB BA/B/|cA AG/A/|BG G2|Bd Bd|gB BA/B/|cA FA|GG G2:|
|:dB BA/B/|cA A2|GA GA|GA BG|dB BA/B/|cA A2|GA GA|BA G2:|

